svg/part/face_line.svg

<?xml version="1.0" encoding="UTF-8"?>
<svg width="24px" height="24px" viewBox="0 0 24 24" version="1.1" xmlns="http://www.w3.org/2000/svg" xmlns:xlink="http://www.w3.org/1999/xlink">
    <title>face_line</title>
    <g id="页面-1" stroke="none" stroke-width="1" fill="none" fill-rule="evenodd">
        <g id="Part" transform="translate(-240.000000, 0.000000)">
            <g id="face_line" transform="translate(240.000000, 0.000000)">
                 <path d="M24,0 L24,24 L0,24 L0,0 L24,0 Z M12.5934901,23.257841 L12.5819402,23.2595131 L12.5108777,23.2950439 L12.4918791,23.2987469 L12.4918791,23.2987469 L12.4767152,23.2950439 L12.4056548,23.2595131 C12.3958229,23.2563662 12.3870493,23.2590235 12.3821421,23.2649074 L12.3780323,23.275831 L12.360941,23.7031097 L12.3658947,23.7234994 L12.3769048,23.7357139 L12.4804777,23.8096931 L12.4953491,23.8136134 L12.4953491,23.8136134 L12.5071152,23.8096931 L12.6106902,23.7357139 L12.6232938,23.7196733 L12.6232938,23.7196733 L12.6266527,23.7031097 L12.609561,23.275831 C12.6075724,23.2657013 12.6010112,23.2592993 12.5934901,23.257841 L12.5934901,23.257841 Z M12.8583906,23.1452862 L12.8445485,23.1473072 L12.6598443,23.2396597 L12.6498822,23.2499052 L12.6498822,23.2499052 L12.6471943,23.2611114 L12.6650943,23.6906389 L12.6699349,23.7034178 L12.6699349,23.7034178 L12.678386,23.7104931 L12.8793402,23.8032389 C12.8914285,23.8068999 12.9022333,23.8029875 12.9078286,23.7952264 L12.9118235,23.7811639 L12.8776777,23.1665331 C12.8752882,23.1545897 12.8674102,23.1470016 12.8583906,23.1452862 L12.8583906,23.1452862 Z M12.1430473,23.1473072 C12.1332178,23.1423925 12.1221763,23.1452606 12.1156365,23.1525954 L12.1099173,23.1665331 L12.0757714,23.7811639 C12.0751323,23.7926639 12.0828099,23.8018602 12.0926481,23.8045676 L12.108256,23.8032389 L12.3092106,23.7104931 L12.3186497,23.7024347 L12.3186497,23.7024347 L12.3225043,23.6906389 L12.340401,23.2611114 L12.337245,23.2485176 L12.337245,23.2485176 L12.3277531,23.2396597 L12.1430473,23.1473072 Z" id="MingCute" fill-rule="nonzero"></path>
                <path d="M7.7752,5.57341 C6.80489,6.55 6.178,7.96828 5.92537,9.69938 C5.88358,9.98571 5.71982,10.2399 5.47637,10.3963 C5.23292,10.5527 4.93366,10.596 4.65587,10.515 C4.37937,10.4343 4.20622,10.6867 4.1192,10.921 C4.00625,11.225 3.97168,11.6661 4.10296,12.156 C4.21695,12.5814 4.61995,13.4658 5.19309,13.4126 C5.65296,13.37 6.08222,13.6478 6.23164,14.0848 C7.24788,17.0569 9.79892,19 12,19 C14.2011,19 16.7523,17.0568 17.7684,14.0845 C17.9182,13.6464 18.3491,13.3684 18.81,13.4125 C19.3833,13.4674 19.7872,12.5809 19.901,12.156 C20.0323,11.666 19.9977,11.225 19.8848,10.921 C19.7974,10.6859 19.6238,10.4338 19.3467,10.5154 C19.0687,10.5972 18.7688,10.5545 18.5248,10.3981 C18.2808,10.2417 18.1166,9.9872 18.0747,9.70041 C17.8222,7.96902 17.1954,6.55048 16.2251,5.5737 C15.2723,4.61465 13.909,4 12,4 C10.0911,4 8.72792,4.61453 7.7752,5.57341 Z M6.35644,4.16376 C7.72691,2.78442 9.62165,2 12,2 C14.3786,2 16.2734,2.78458 17.6439,4.16417 C18.7996,5.32746 19.5237,6.85385 19.8944,8.53712 C19.9489,8.5475 20.0034,8.55995 20.0578,8.57455 C20.9268,8.80739 21.487,9.4907 21.7596,10.2244 C22.0331,10.9607 22.0589,11.8299 21.8329,12.6736 C21.5159,13.8566 20.6679,15.0237 19.4309,15.3392 C18.0793,18.589 15.0863,21 12,21 C8.91331,21 5.92,18.5884 4.56863,15.338 C3.33385,15.0207 2.48774,13.8553 2.17111,12.6736 C1.94504,11.8299 1.97085,10.9607 2.24441,10.2244 C2.51701,9.49071 3.07715,8.8074 3.94612,8.57455 C3.9992,8.56033 4.0523,8.54815 4.10534,8.53792 C4.4761,6.85415 5.20039,5.32729 6.35644,4.16376 Z" id="形状" fill="#09244B"></path>
            </g>
        </g>
    </g>
</svg>

<svg xmlns="http://www.w3.org/2000/svg" width="24" height="24"><g fill="none" fill-rule="evenodd"><path d="M24 0v24H0V0h24ZM12.593 23.258l-.011.002-.071.035-.02.004-.014-.004-.071-.035c-.01-.004-.019-.001-.024.005l-.004.01-.017.428.005.02.01.013.104.074.015.004.012-.004.104-.074.012-.016.004-.017-.017-.427c-.002-.01-.009-.017-.017-.018Zm.265-.113-.013.002-.185.093-.01.01-.003.011.018.43.005.012.008.007.201.093c.012.004.023 0 .029-.008l.004-.014-.034-.614c-.003-.012-.01-.02-.02-.022Zm-.715.002a.023.023 0 0 0-.027.006l-.006.014-.034.614c0 .012.007.02.017.024l.015-.002.201-.093.01-.008.004-.011.017-.43-.003-.012-.01-.01-.184-.092Z"/><path fill="#09244B" d="M7.775 5.573c-.97.977-1.597 2.395-1.85 4.126a1 1 0 0 1-1.27.816c-.276-.08-.449.172-.536.406-.113.304-.147.745-.016 1.235.114.425.517 1.31 1.09 1.257a1 1 0 0 1 1.039.672C7.248 17.057 9.799 19 12 19c2.201 0 4.752-1.943 5.768-4.915a1 1 0 0 1 1.042-.673c.573.055.977-.831 1.091-1.256.131-.49.097-.931-.016-1.235-.088-.235-.261-.487-.538-.406a1 1 0 0 1-1.272-.815c-.253-1.731-.88-3.15-1.85-4.126C15.272 4.614 13.91 4 12 4c-1.909 0-3.272.615-4.225 1.573Zm-1.419-1.41C7.726 2.785 9.622 2 12 2c2.379 0 4.273.785 5.644 2.164 1.156 1.163 1.88 2.69 2.25 4.373.055.01.11.023.164.038.869.232 1.429.916 1.702 1.65.273.736.299 1.605.073 2.449-.317 1.183-1.165 2.35-2.402 2.665C18.079 18.59 15.086 21 12 21c-3.087 0-6.08-2.412-7.431-5.662-1.235-.317-2.081-1.483-2.398-2.664-.226-.844-.2-1.713.073-2.45.273-.733.833-1.417 1.702-1.65.053-.014.106-.026.16-.036.37-1.684 1.094-3.21 2.25-4.374Z"/></g></svg>
